X:1
T:The Foxy Devil
M:2/4
L:1/8
K:C
 G,| CC CE| FE DC| G,4| z3 G,| CC CE| FE DC| G4-| G2 z C| G3/2 G/2 EG|\
 F3/2 F/2 E3/2 D/2| CC A, F,| G,4-| G,2 z A,| C3/2 C/2 C3/2 E/2| F3/2 F/2 E3/2 D/2|\
 CC A, F,| G,4-| G,2 z|
